X:475
%%etbk:tnset id:194,pos:1,rep:3x,ant:
T: The Foggy Dew
R: song
M: C
L: 1/8
K:Bm
FA |: "Bm"B2 AF B2 AF | "A"E2 F2 A,2 B,C | "G"DF ED "A"B,3 A, | "Bm"B,8 :|
B,C | "D"D2 F2 A2 GF | "A"E3 E "D"F2 DE | F2 dc "(Fm)"BA FA | "Bm"B6FA|
 "Bm"B2 AF B2 AF | "A"E2 F2 A,2 B,C | "G"DF ED "A"B,3 A, | "Bm"B,8 ||


